packages/foundations/assets/icons/functional/images/transportation/bus_24.svg

<svg width="24" height="24" viewBox="0 0 24 24" fill="none" xmlns="http://www.w3.org/2000/svg">
<g clip-path="url(#clip0_187_868)">
<path fill-rule="evenodd" clip-rule="evenodd" d="M16.4361 2C17.3999 2 17.9134 2.09916 18.4484 2.38532C18.9486 2.65283 19.3472 3.05136 19.6147 3.55156C19.877 4.04205 19.9822 4.51438 19.9979 5.33205L19.9999 6.13386C20.147 6.04873 20.3178 6 20.5 6C21.0128 6 21.5 6.43297 21.5 7V10C21.5 10.5523 21.0523 11 20.5 11C20.3178 11 20.147 10.9513 19.9999 10.8661L20 17.4361C20 18.3999 19.9008 18.9134 19.6147 19.4484C19.455 19.7471 19.2486 20.0095 19.0017 20.2294L19 21C19 21.5523 18.5523 22 18 22H17C16.4477 22 16 21.5523 16 21H8C8 21.5523 7.55228 22 7 22H6C5.44772 22 5 21.5523 5 21L4.99934 20.2303C4.75202 20.0102 4.54525 19.7475 4.38532 19.4484C4.123 18.958 4.01782 18.4856 4.00212 17.668L4.00111 10.8656C3.85378 10.9511 3.6826 11 3.5 11C2.98716 11 2.5 10.5744 2.5 10V7C2.5 6.44772 2.94772 6 3.5 6C3.6826 6 3.85378 6.04894 4.00111 6.13443L4 5.56389C4 4.6001 4.09916 4.08664 4.38532 3.55156C4.65283 3.05136 5.05136 2.65283 5.55156 2.38532C6.04205 2.123 6.55708 2 7.39444 2.00212L16.4361 2ZM12 15.15C10.2407 15.15 8.24179 15.0027 6.00129 14.7088C6.00043 16.369 6.00033 17.3345 6.00099 17.6056C6.00198 18.0121 6.00099 18.369 6.29972 18.6815C6.59844 18.994 7 18.999 7.39444 18.999C7.78889 18.999 16.1155 18.999 16.6056 18.999C17.0956 18.999 17.4757 18.9751 17.7368 18.6815C17.9978 18.388 18.0002 17.9597 17.999 17.6056C17.9982 17.3695 17.9981 16.4039 17.9987 14.7088C15.7582 15.0027 13.7593 15.15 12 15.15ZM8 16C8.55228 16 9 16.4477 9 17C9 17.5523 8.55228 18 8 18C7.44772 18 7 17.5523 7 17C7 16.4477 7.44772 16 8 16ZM16 16C16.5523 16 17 16.4477 17 17C17 17.5523 16.5523 18 16 18C15.4477 18 15 17.5523 15 17C15 16.4477 15.4477 16 16 16ZM16.6056 4.00099C16.2111 3.99652 7.88056 4.0039 7.39444 4.00099C6.90833 3.99808 6.60396 4.03542 6.32823 4.26584C6.05251 4.49626 6.00225 4.84749 6.00099 5.39444C6.00015 5.75908 6.00055 8.19136 6.00218 12.6913C8.267 12.9974 10.267 13.15 12 13.15C13.733 13.15 15.733 12.9974 17.9978 12.6913C17.9994 8.14209 17.9998 5.7098 17.999 5.39444C17.9978 4.9214 18 4.63504 17.7368 4.32025C17.4735 4.00546 17 4.00546 16.6056 4.00099ZM15 5C15.5523 5 16 5.44772 16 6C16 6.51284 15.6166 7 15 7H9C8.44772 7 8 6.55228 8 6C8 5.48716 8.42415 5 9 5.00213L15 5Z" fill="#1A1C1F"/>
</g>
<defs>
<clipPath id="clip0_187_868">
<rect width="24" height="24" fill="white"/>
</clipPath>
</defs>
</svg>

<svg xmlns="http://www.w3.org/2000/svg" width="24" height="24" fill="none"><g clip-path="url(#a)"><path fill="#1A1C1F" fill-rule="evenodd" d="M16.436 2c.964 0 1.477.1 2.012.385.5.268.9.666 1.167 1.167.262.49.367.962.383 1.78l.002.802A1 1 0 0 1 20.5 6c.513 0 1 .433 1 1v3a1 1 0 0 1-1.5.866v6.57c0 .964-.1 1.477-.385 2.012q-.241.45-.613.781L19 21a1 1 0 0 1-1 1h-1a1 1 0 0 1-1-1H8a1 1 0 0 1-1 1H6a1 1 0 0 1-1-1v-.77a2.8 2.8 0 0 1-.615-.782c-.262-.49-.367-.962-.383-1.78v-6.802A1 1 0 0 1 3.5 11c-.513 0-1-.426-1-1V7a1 1 0 0 1 1.501-.866L4 5.564c0-.964.1-1.477.385-2.012.268-.5.666-.9 1.167-1.167.49-.262 1.005-.385 1.842-.383zM12 15.15q-2.639 0-5.999-.441v2.897c.001.406 0 .763.299 1.075.298.313.7.318 1.094.318h9.212c.49 0 .87-.024 1.13-.317.262-.294.264-.722.263-1.076v-2.897q-3.36.441-5.999.441M8 16a1 1 0 1 1 0 2 1 1 0 0 1 0-2m8 0a1 1 0 1 1 0 2 1 1 0 0 1 0-2m.606-11.999c-.395-.004-8.725.003-9.212 0-.486-.003-.79.034-1.066.265-.275.23-.326.581-.327 1.128l.001 7.297Q9.4 13.15 12 13.15t5.998-.459q.002-6.823.001-7.297c-.001-.473.001-.759-.262-1.074s-.737-.315-1.131-.319M15 5a1 1 0 0 1 1 1c0 .513-.383 1-1 1H9a1 1 0 0 1-1-1c0-.513.424-1 1-.998z" clip-rule="evenodd"/></g><defs><clipPath id="a"><path fill="#fff" d="M0 0h24v24H0z"/></clipPath></defs></svg>
